X:1
T:Title
%%score { 1 | 2 }
L:1/8
M:4/4
K:Ab
V:1 treble nm="Grand Piano"
V:2 bass 
V:1
 z4 z2[Q:1/4=94] [CE]>[CE] | [Ec][Ec][Ec][DB] [DB][CA] [CA]>[CE] | [EG]FFF F2 F>F | %3
 [CE][EA][EA]B ccBA | B6 E>E | [Ec][Ec][Ec][DB] [DB][CA] [CA]>[CE] | [EG]FFF [Fd]2 [EFc]>[DFB] | %7
 AAGG EEBB |[M:3/4] [CEA]6 |[M:1/4] [CA]>[DB] |[M:4/4] [Ec]2 [Ec]2 [Fd]2 [Ec]2 | c2 B4 B>c | %12
 [Gd][Gd][Gd][Gd] [Ge][Ge][Gd][Gd] |[M:3/4] c6 |[M:1/4] c>d |[M:4/4] e2 e2 c2 e2 | %16
 [Fe]2 [Fd]4 [EFc]>[DFB] | AAGG EEBB |[M:3/4] [CEA]6 |] %19
V:2
 z4 z2 [A,,A,]>[A,,A,] | [A,,A,][A,,A,][A,,A,][A,,E,] [A,,E,][A,,E,] [A,,E,]>[A,,A,] | %2
 [D,A,][D,A,D][D,A,D][D,A,D] [D,A,D]2 [D,A,D]>[D,A,D] | %3
 [A,,A,][C,A,][C,A,][E,G,E] [A,E][A,E][G,B,E][F,B,=D] | [E,G,E]6 [E,G,]>[E,G,] | %5
 [A,,A,][A,,A,][A,,A,][A,,E,] [A,,E,][A,,E,] [A,,E,]>[A,,A,] | %6
 [D,A,][D,A,D][D,A,D][D,A,D] [D,A,]2 D,>D, | [E,CE][E,CE][E,B,E][E,B,E] [E,G,][E,G,][E,DE][E,DE] | %8
[M:3/4] A,,6 |[M:1/4] [A,,E,]>[A,,E,] |[M:4/4] [A,,A,]2 [A,,A,]2 [A,,A,]2 [A,,A,]2 | %11
 [E,A,E]2 [E,G,E]4 [E,G,E]>[E,A,E] | [E,B,][E,B,][E,B,][E,B,] [E,B,][E,B,][E,E][E,E] | %13
[M:3/4][K:treble] [A,EA]6 |[M:1/4] [A,EA]>[A,B,A] |[M:4/4] [A,CA]2 [A,CA]2 [A,E]2 [A,_G]2 | %16
 [D,A,]2 [D,A,]4 D,>D, | [E,CE][E,CE][E,B,E][E,B,E] [E,G,][E,G,][E,DE][E,DE] |[M:3/4] A,,6 |] %19

